docs/img/better.svg

<svg width="135" height="135" viewBox="0 0 135 135" fill="none" xmlns="http://www.w3.org/2000/svg">
<path fill-rule="evenodd" clip-rule="evenodd" d="M96.3752 64.2674L95.968 64.4091C95.968 64.4091 95.968 64.4069 95.9669 64.4057L95.9569 64.3779C95.9558 64.3745 95.9535 64.3678 95.9524 64.3645L96.5961 64.1514L96.6084 64.1525L96.3752 64.2674ZM95.9267 64.0175L95.929 64.0019L96.6563 64.1202L96.4611 64.1168L95.9234 64.0365L95.9267 64.0175ZM96.7333 64.1213L96.808 64.0822L96.9798 64.0265L97.0021 64.0488L96.7935 64.1235L96.7333 64.1213ZM96.8672 64.1547L97.1527 64.1994L97.1762 64.2228L96.7076 64.1536L96.8672 64.1547ZM105.613 29.5702L104.23 28.1869C94.7811 18.7381 79.4075 18.737 69.9588 28.1858L67.673 30.4715L65.5333 32.6112L61.92 36.2245C61.92 36.2245 66.2083 39.7385 68.581 38.3273L68.5799 38.3217C68.9235 38.3084 69.2649 38.2414 69.5906 38.1098C71.8697 40.2572 82.2879 50.5126 95.3199 49.2877C93.9656 52.052 92.4451 58.3382 95.8007 64.1525C95.6467 64.4961 95.5631 64.8609 95.5408 65.2268L95.4727 65.219C94.0604 67.5907 97.5744 71.8789 97.5744 71.8789L101.203 68.25L103.327 66.1259L105.613 63.8402C115.063 54.3925 115.062 39.019 105.613 29.5702Z" fill="#85C12F"/>
<path fill-rule="evenodd" clip-rule="evenodd" d="M98.0006 67.3373C97.5499 66.4761 96.7177 65.8849 95.7583 65.7376C94.8 65.5915 93.8284 65.9094 93.1412 66.5966L86.9934 72.7444C86.3073 73.4305 85.9882 74.4033 86.1355 75.3604C86.2348 76.013 86.5393 76.6054 86.9934 77.0594C87.2087 77.2747 87.4574 77.461 87.7341 77.6038C88.2751 77.8883 88.8675 78.108 89.4933 78.2586C89.8603 78.3468 90.243 78.3657 90.6178 78.3144C90.9781 78.4293 91.3563 78.4773 91.7345 78.4539C93.593 78.3401 95.3366 77.5558 96.6452 76.2473C99.0113 73.8812 99.5568 70.3014 98.0006 67.3373Z" fill="#85C12F"/>
<path fill-rule="evenodd" clip-rule="evenodd" d="M68.1249 38.1022C67.9776 37.1428 67.3842 36.3106 66.5252 35.86C63.5611 34.306 59.9802 34.8504 57.6152 37.2154C55.2469 39.5837 54.7036 43.1635 56.2576 46.1276C56.4015 46.4053 56.5867 46.653 56.802 46.8683C57.256 47.3223 57.8495 47.628 58.4998 47.7273C59.4592 47.8745 60.4309 47.5544 61.1169 46.8683L67.2648 40.7204C67.952 40.0333 68.271 39.0627 68.1249 38.1022Z" fill="#85C12F"/>
<path fill-rule="evenodd" clip-rule="evenodd" d="M69.2281 76.4152C69.2103 75.5852 68.8533 74.8021 68.2409 74.2342L68.1639 74.164C68.0278 74.0368 67.8794 73.9219 67.7232 73.8215C66.7036 73.1745 65.761 72.4192 64.9209 71.5792L62.2838 68.942C61.4181 68.0764 60.6439 67.1036 59.9824 66.0472C59.4893 65.2596 58.6638 64.7397 57.7412 64.636C56.8175 64.5311 55.8961 64.8546 55.2401 65.5106L48.964 71.7867L48.9428 71.8057C48.2857 72.3958 47.9142 73.238 47.9243 74.1205L48.037 82.6779C48.0481 83.4722 48.3694 84.233 48.9305 84.7941L48.9651 84.8287C49.5508 85.3943 50.335 85.7033 51.1471 85.6877L60.249 85.517C61.0377 85.5025 61.7907 85.1823 62.3485 84.6246L68.3346 78.6385C68.9236 78.0495 69.2471 77.2463 69.2281 76.4152Z" fill="#85C12F"/>
<path fill-rule="evenodd" clip-rule="evenodd" d="M96.6379 62.4505C96.4739 62.0924 96.34 61.7332 96.2218 61.3718C94.2863 56.0562 94.9824 52.3503 95.6896 50.4315C95.703 50.3467 95.722 50.2564 95.7521 50.1504C96.1169 48.9199 94.9378 48.7492 94.9378 48.7492L94.9355 48.7448C88.955 47.9561 83.7375 45.7774 79.7784 43.5853C78.2289 42.7431 76.8267 41.8517 75.604 40.9995C73.1643 39.3183 71.791 38.0432 71.791 38.0432C70.5795 36.9968 68.7667 37.0604 67.6344 38.1927L58.8305 46.9967C51.8292 53.9979 51.8303 65.3912 58.8327 72.3935L61.4699 75.0307C68.4711 82.0319 79.8643 82.0331 86.8656 75.0318L96.021 65.8764C96.9212 64.9762 97.1666 63.6085 96.6379 62.4505Z" fill="#85C12F"/>
<path fill-rule="evenodd" clip-rule="evenodd" d="M45.308 95.0557L51.2283 92.3683L49.9197 83.7596L41.2831 82.4454L38.7887 88.5364L45.308 95.0557Z" fill="#85C12F"/>
<path fill-rule="evenodd" clip-rule="evenodd" d="M38.7881 88.5361L38.6565 88.8574L22.6783 100.398L33.4646 111.184L45.0163 95.1882L45.3074 95.0555L38.7881 88.5361Z" fill="#85C12F"/>
<path fill-rule="evenodd" clip-rule="evenodd" d="M24.0604 101.78L40.2338 90.1006L43.2469 82.7457L42.9033 69.1582L34.3369 80.451L22.9605 100.681L24.0604 101.78Z" fill="#85C12F"/>
<path fill-rule="evenodd" clip-rule="evenodd" d="M33.2006 110.921L53.6645 99.4129L64.9606 90.8454L50.9258 90.3847L43.7505 93.6421L32.0806 109.801L33.2006 110.921Z" fill="#85C12F"/>
<path fill-rule="evenodd" clip-rule="evenodd" d="M49.6448 94.6827C50.024 97.1704 51.8301 97.1002 52.6434 96.9339L66.5957 92.1136L64.5921 82.3302L60.6955 83.4446L50.1311 83.6409L50.0006 73.6823L52.4203 69.306L41.5648 67.0827L36.8582 80.707C36.7377 81.0752 36.0238 83.5986 39.0157 84.0559L48.2224 85.456L49.5577 94.2298C49.589 94.3592 49.618 94.5065 49.6448 94.6827Z" fill="#85C12F"/>
<mask id="mask0_0_1884" style="mask-type:alpha" maskUnits="userSpaceOnUse" x="0" y="51" width="52" height="52">
<path fill-rule="evenodd" clip-rule="evenodd" d="M0.561881 78.2819L27.4658 51.3779L51.2838 75.1959L24.3798 102.1L0.561881 78.2819V78.2819Z" fill="white"/>
</mask>
<g mask="url(#mask0_0_1884)">
<path fill-rule="evenodd" clip-rule="evenodd" d="M3.34869 81.0692L24.3792 102.1L43.7464 67.659L32.7359 63.1254L32.7214 63.1198C28.4566 61.0705 19.0937 59.7486 11.0594 67.7829L3.34534 75.4969C2.55552 76.3715 0.954697 78.6752 3.34869 81.0692Z" fill="#85C12F"/>
</g>
<mask id="mask1_0_1884" style="mask-type:alpha" maskUnits="userSpaceOnUse" x="31" y="82" width="52" height="51">
<path fill-rule="evenodd" clip-rule="evenodd" d="M82.0569 106.212L55.2746 132.994L31.7821 109.502L58.5645 82.7192L82.0569 106.212V106.212Z" fill="white"/>
</mask>
<g mask="url(#mask1_0_1884)">
<path fill-rule="evenodd" clip-rule="evenodd" d="M57.9654 130.303L65.7732 122.496C73.9067 114.362 72.3807 104.777 70.4307 100.819L66.0677 90.2225L31.7821 109.502L52.4925 130.212C54.8017 132.521 57.0272 131.114 57.9654 130.303Z" fill="#85C12F"/>
</g>
<path fill-rule="evenodd" clip-rule="evenodd" d="M43.7474 67.659L32.7368 63.1254L32.7212 63.1187C28.4576 61.0705 19.0947 59.7486 11.0604 67.7829L3.3452 75.4981C2.55538 76.3704 0.955674 78.6752 3.34966 81.0692L3.69772 81.4172L14.1962 70.9187C22.2305 62.8844 31.5934 64.2064 35.8582 66.2557L35.8727 66.2612L42.904 69.1583L43.7474 67.659Z" fill="#85C12F"/>
<path fill-rule="evenodd" clip-rule="evenodd" d="M46.5166 124.236L57.2427 113.51C57.9165 112.836 57.9165 111.745 57.2427 111.071C56.5689 110.398 55.4779 110.398 54.8041 111.071L44.078 121.797L46.5166 124.236Z" fill="#85C12F"/>
<path fill-rule="evenodd" clip-rule="evenodd" d="M12.0645 89.7844L22.7906 79.0583C23.4644 78.3845 23.4644 77.2935 22.7906 76.6197C22.1168 75.9459 21.0258 75.9459 20.352 76.6197L9.62588 87.3458L12.0645 89.7844Z" fill="#85C12F"/>
<mask id="mask2_0_1884" style="mask-type:alpha" maskUnits="userSpaceOnUse" x="0" y="1" width="133" height="132">
<path fill-rule="evenodd" clip-rule="evenodd" d="M0.561116 78.2821L55.2737 132.995L132.157 56.1115L77.4443 1.39893L0.561116 78.2821Z" fill="white"/>
</mask>
<g mask="url(#mask2_0_1884)">
<path fill-rule="evenodd" clip-rule="evenodd" d="M62.5707 61.9035L70.7232 70.056L77.7579 63.0213L69.6054 54.8688L62.5707 61.9035ZM79.5774 46.2198L80.2802 46.1774C85.4943 50.5638 88.3089 51.145 90.1295 49.3244C91.5373 47.9166 91.2885 45.9298 89.3017 43.943C87.3573 41.9985 84.2137 40.8406 80.529 40.632L81.8543 31.0315C86.9022 31.0326 92.1576 32.6468 96.9165 37.4058C103 43.4889 103.95 51.0614 98.4884 56.5231C93.2742 61.7373 87.5637 60.4956 81.8531 57.0207L78.7084 59.1726L73.7006 54.1648L79.5774 46.2198Z" fill="white"/>
</g>
</svg>

<svg width="135" height="135" viewBox="0 0 135 135" fill="none" xmlns="http://www.w3.org/2000/svg"><path fill-rule="evenodd" clip-rule="evenodd" d="M96.375 64.267l-.407.142-.001-.003-.01-.028-.005-.013.644-.214.012.002-.233.114zm-.448-.25l.002-.015.727.118-.195-.003-.538-.08.004-.02zm.806.104l.075-.039.172-.055.022.022-.209.075-.06-.003zm.134.034l.286.044.023.024-.468-.07.16.002zm8.746-34.585l-1.383-1.383c-9.449-9.449-24.823-9.45-34.271-.001l-2.286 2.285-2.14 2.14-3.613 3.614s4.288 3.514 6.661 2.102l-.001-.005c.344-.014.685-.08 1.01-.212 2.28 2.147 12.698 12.403 25.73 11.178-1.354 2.764-2.875 9.05.48 14.865a3.08 3.08 0 00-.26 1.074l-.067-.008c-1.413 2.372 2.101 6.66 2.101 6.66l3.629-3.629 2.124-2.124 2.286-2.286c9.45-9.448 9.449-24.821 0-34.27z" fill="#85C12F"/><path fill-rule="evenodd" clip-rule="evenodd" d="M98 67.337a3.05 3.05 0 00-4.859-.74l-6.148 6.147a3.047 3.047 0 00-.858 2.616 3.049 3.049 0 001.6 2.244 7.602 7.602 0 001.758.655c.367.088.75.107 1.125.055.36.115.738.163 1.117.14a7.593 7.593 0 004.91-2.207 7.568 7.568 0 001.356-8.91zM68.125 38.102a3.055 3.055 0 00-1.6-2.242 7.573 7.573 0 00-8.91 1.355 7.572 7.572 0 00-1.357 8.913 3.055 3.055 0 002.242 1.6 3.048 3.048 0 002.617-.86l6.148-6.148a3.051 3.051 0 00.86-2.618zm1.103 38.313a3.062 3.062 0 00-.987-2.18l-.077-.071a3.106 3.106 0 00-.44-.343 16.384 16.384 0 01-2.803-2.242l-2.637-2.637a16.416 16.416 0 01-2.302-2.895 3.052 3.052 0 00-4.742-.537l-6.276 6.277-.021.019a3.063 3.063 0 00-1.019 2.315l.113 8.557c.011.794.332 1.555.894 2.116l.034.035c.586.565 1.37.874 2.182.859l9.102-.171a3.05 3.05 0 002.1-.892l5.986-5.987a3.047 3.047 0 00.893-2.223z" fill="#85C12F"/><path fill-rule="evenodd" clip-rule="evenodd" d="M96.638 62.45a10.153 10.153 0 01-.416-1.078c-1.936-5.316-1.24-9.022-.532-10.94.013-.085.032-.176.062-.282.365-1.23-.814-1.4-.814-1.4l-.002-.005c-5.981-.789-11.199-2.968-15.158-5.16A44.462 44.462 0 0175.604 41c-2.44-1.68-3.813-2.956-3.813-2.956a3.054 3.054 0 00-4.157.15l-8.803 8.804c-7.002 7-7 18.394.002 25.397l2.637 2.637c7.001 7 18.394 7.002 25.396 0l9.155-9.155c.9-.9 1.146-2.268.617-3.426zm-51.33 32.606l5.92-2.688-1.308-8.608-8.637-1.315-2.494 6.091 6.519 6.52zm-6.52-6.52l-.131.321-15.979 11.541 10.787 10.786 11.551-15.996.291-.133-6.519-6.519z" fill="#85C12F"/><path fill-rule="evenodd" clip-rule="evenodd" d="M24.06 101.78L40.234 90.1l3.013-7.354-.344-13.588-8.566 11.293-11.377 20.23 1.1 1.099zm9.14 9.141l20.464-11.508 11.297-8.568-14.035-.46-7.175 3.257-11.67 16.159 1.12 1.12z" fill="#85C12F"/><path fill-rule="evenodd" clip-rule="evenodd" d="M49.645 94.683c.379 2.487 2.185 2.417 2.998 2.25l13.953-4.82-2.004-9.783-3.896 1.115-10.565.196-.13-9.959 2.42-4.376-10.856-2.223-4.707 13.624c-.12.368-.834 2.892 2.158 3.349l9.206 1.4 1.336 8.774c.031.13.06.276.087.453z" fill="#85C12F"/><mask id="mask0_0_1884" style="mask-type:alpha" maskUnits="userSpaceOnUse" x="0" y="51" width="52" height="52"><path fill-rule="evenodd" clip-rule="evenodd" d="M.562 78.282l26.904-26.904 23.818 23.818L24.38 102.1.562 78.282z" fill="#fff"/></mask><g mask="url(#mask0_0_1884)"><path fill-rule="evenodd" clip-rule="evenodd" d="M3.349 81.07l21.03 21.03 19.367-34.441-11.01-4.534-.015-.005c-4.264-2.05-13.627-3.371-21.662 4.663l-7.714 7.714c-.79.874-2.39 3.178.004 5.572z" fill="#85C12F"/></g><mask id="mask1_0_1884" style="mask-type:alpha" maskUnits="userSpaceOnUse" x="31" y="82" width="52" height="51"><path fill-rule="evenodd" clip-rule="evenodd" d="M82.057 106.212l-26.782 26.782-23.493-23.492 26.783-26.783 23.492 23.493z" fill="#fff"/></mask><g mask="url(#mask1_0_1884)"><path fill-rule="evenodd" clip-rule="evenodd" d="M57.965 130.303l7.808-7.807c8.134-8.134 6.608-17.719 4.658-21.677l-4.363-10.597-34.286 19.28 20.71 20.71c2.31 2.309 4.535.902 5.473.091z" fill="#85C12F"/></g><path fill-rule="evenodd" clip-rule="evenodd" d="M43.747 67.659l-11.01-4.534-.016-.006c-4.263-2.048-13.626-3.37-21.66 4.664l-7.716 7.715c-.79.872-2.39 3.177.005 5.571l.348.348L14.196 70.92c8.034-8.035 17.397-6.713 21.662-4.663l.015.005 7.031 2.897.843-1.499zm2.77 56.577l10.726-10.726a1.724 1.724 0 10-2.439-2.439l-10.726 10.726 2.439 2.439zM12.065 89.784L22.79 79.058a1.724 1.724 0 10-2.439-2.438L9.626 87.346l2.439 2.438z" fill="#85C12F"/><mask id="mask2_0_1884" style="mask-type:alpha" maskUnits="userSpaceOnUse" x="0" y="1" width="133" height="132"><path fill-rule="evenodd" clip-rule="evenodd" d="M.561 78.282l54.713 54.713 76.883-76.883L77.444 1.399.561 78.282z" fill="#fff"/></mask><g mask="url(#mask2_0_1884)"><path fill-rule="evenodd" clip-rule="evenodd" d="M62.57 61.904l8.153 8.152 7.035-7.035-8.153-8.152-7.034 7.035zM79.578 46.22l.703-.043c5.214 4.387 8.029 4.968 9.85 3.147 1.407-1.407 1.159-3.394-.828-5.381-1.945-1.944-5.088-3.102-8.773-3.311l1.325-9.6c5.048 0 10.304 1.615 15.063 6.374 6.083 6.083 7.033 13.655 1.571 19.117-5.214 5.214-10.924 3.973-16.635.498l-3.145 2.152-5.007-5.008 5.876-7.945z" fill="#fff"/></g></svg>
